!!!OTL: Ritter und Magd Devojcica se igrala
!!!ARE: Europa, Suedosteuropa, Jugoslavija, Kroatien
!!!YOR: 3, S. 65
!!    ????
!!!SCT: Q2055p
!!!YEM: Copyright 1995, estate of Helmut Schaffrath.
**kern
*ICvox
*Ivox
*M2/4
*k[f#]
*G:
=1
{8.g
16d
8d
8d
=2
8g
8g
8g}
{8b
=3
8.a
16g
8f#
8e
=4
4e
4d}
=5
{8.d
16e
8d
8c
=6
8B
8b
4b}
=7
{8cc
8f#
8e
8f#
=8
4g
8g
8r}
==
!!!AGN: Ballade, Betrug, Schwangerschaft, Tod, Selbstmord, Herr und Magd
!! Kroatische Fassung der Ballade.
!!    Dritte und vierte Zeile = Refrain, dritte Zeile auf sinnfreie Silben.
!!!ONB: ESAC (Essen Associative Code) Database: BALLADE
!!!AMT: simple duple
!!!AIN: vox
!!!EED: Helmut Schaffrath
!!!EEV: 1.0
*-
